X:1
T:Earl, LM
T:Earl, LM
T:Anonymous, 1862
T:Public Domain Courtesy of the Cyber Hymnal™
C:Anonymous, 1862
Z:Public Domain
Z:Courtesy of the Cyber Hymnal™
%%score ( 1 2 ) 3
L:1/8
Q:1/4=85
M:6/8
K:D
V:1 treble 
V:2 treble 
V:3 bass 
V:1
 D[DF][EG] | [FA]3 [DA][DB][Gc] | [Fd]3 [Fd][Gc][Fd] | [Ae]3 [Fd][Ec][DB] | [CA]3 | [FA][DF][EG] | %6
 [FA]3 [DA][DB][Gc] | [Fd]3 [Fd] (d/d/) (c/B/) | [DA]3 [DB] ([FA]/[EG]/) ([DF]/[CE]/) | D3 |] %10
V:2
 D x2 | x6 | x6 | x6 | x3 | x3 | x6 | x4 GG | x6 | D3 |] %10
V:3
 D,D,D, | D,3 F,G,E, | D,3 D,E,D, | C,3 D,E,E, | A,,3 | D,D,D, | D,3 F,G,A, | B,3 B,G,G, | %8
 F,3 G,A,A, | D,3 |] %10

